packages/foundations/assets/icons/functional/images/audio & video/skip_forward_filled.svg

<svg xmlns="http://www.w3.org/2000/svg" width="32" height="32" fill="none"><path fill="#1A1C1F" fill-rule="evenodd" d="M8.599 7.042c-.755.152-1.394.802-1.561 1.586-.035.164-.049 2.786-.039 7.532l.014 7.28.129.32c.178.442.662.924 1.098 1.094.46.178 1.058.176 1.493-.007.357-.15 10.229-7.036 10.656-7.432.16-.15.318-.371.426-.6.15-.318.171-.416.171-.815 0-.397-.021-.497-.168-.808a2.4 2.4 0 0 0-.375-.56c-.114-.113-2.52-1.824-5.345-3.802-3.656-2.56-5.216-3.624-5.411-3.688-.354-.117-.801-.158-1.088-.1M23.6 8.101a.98.98 0 0 0-.531.551c-.073.175-.082 1.016-.082 7.362v7.163l.12.235c.066.129.212.309.325.398.183.146.243.163.568.163s.385-.017.568-.163c.113-.089.259-.269.325-.398l.12-.235-.001-7.175c-.001-6.862-.005-7.185-.099-7.389-.242-.522-.81-.744-1.313-.512"/></svg>

<svg width="32" height="32" viewBox="0 0 32 32" fill="none" xmlns="http://www.w3.org/2000/svg"><path d="M8.599 7.042 C 7.844 7.194,7.205 7.844,7.038 8.628 C 7.003 8.792,6.989 11.414,6.999 16.160 L 7.013 23.440 7.142 23.760 C 7.320 24.202,7.804 24.684,8.240 24.854 C 8.700 25.032,9.298 25.030,9.733 24.847 C 10.090 24.697,19.962 17.811,20.389 17.415 C 20.549 17.265,20.707 17.044,20.815 16.815 C 20.965 16.497,20.986 16.399,20.986 16.000 C 20.986 15.603,20.965 15.503,20.818 15.192 C 20.726 14.997,20.557 14.745,20.443 14.632 C 20.329 14.519,17.923 12.808,15.098 10.830 C 11.442 8.270,9.882 7.206,9.687 7.142 C 9.333 7.025,8.886 6.984,8.599 7.042 M23.600 8.101 C 23.342 8.220,23.179 8.389,23.069 8.652 C 22.996 8.827,22.987 9.668,22.987 16.014 L 22.987 23.177 23.107 23.412 C 23.173 23.541,23.319 23.721,23.432 23.810 C 23.615 23.956,23.675 23.973,24.000 23.973 C 24.325 23.973,24.385 23.956,24.568 23.810 C 24.681 23.721,24.827 23.541,24.893 23.412 L 25.013 23.177 25.012 16.002 C 25.011 9.140,25.007 8.817,24.913 8.613 C 24.671 8.091,24.103 7.869,23.600 8.101 " fill="#1A1C1F" stroke="none" fill-rule="evenodd"></path></svg>
